packages/bezier-icons/icons/landline.svg

<svg width="24" height="24" viewBox="0 0 24 24" fill="none" xmlns="http://www.w3.org/2000/svg">
<path fill-rule="evenodd" clip-rule="evenodd" d="M12 3C18.2609 3 21 5.92578 21 8.01562C21 9.26953 20.3011 10.3562 19.4348 10.5234C18.6522 10.6906 17.0643 10.4993 16.3043 9.6875C15.846 9.19791 15.79 8.41572 15.7439 7.77107C15.7112 7.31501 15.6835 6.92779 15.5217 6.76172C15.1313 6.36088 13.7143 5.74665 12 5.74665C10.2857 5.74665 8.86869 6.36088 8.47826 6.76172C8.3165 6.92779 8.28878 7.31501 8.25613 7.77107C8.20999 8.41572 8.154 9.19791 7.69565 9.6875C6.93567 10.4993 5.34782 10.6906 4.56522 10.5234C3.69888 10.3562 3.00001 9.26953 3 8.01562C2.99999 5.92578 5.73913 3 12 3ZM8.1656 9.69534C8.70474 9.24605 9.38434 9 10.0861 9H13.9138C14.6157 9 15.2953 9.24605 15.8344 9.69534L19.5607 12.8006C20.4727 13.5606 21 14.6864 21 15.8735V18C21 19.1046 20.1046 20 19 20H5C3.89543 20 3 19.1046 3 18V15.8735C3 14.6864 3.52729 13.5606 4.43926 12.8006L8.1656 9.69534ZM14.5 14.5C14.5 15.8807 13.3807 17 12 17C10.6193 17 9.5 15.8807 9.5 14.5C9.5 13.1193 10.6193 12 12 12C13.3807 12 14.5 13.1193 14.5 14.5Z" fill="#313234"/>
</svg>

<svg xmlns="http://www.w3.org/2000/svg" width="24" height="24" fill="none" viewBox="0 0 24 24"><path fill="#313234" fill-rule="evenodd" d="M12 3c6.26 0 9 2.926 9 5.016 0 1.254-.699 2.34-1.565 2.507-.783.168-2.37-.024-3.13-.835-.459-.49-.515-1.272-.561-1.917-.033-.456-.06-.843-.222-1.01-.39-.4-1.808-1.014-3.522-1.014s-3.131.614-3.522 1.015c-.162.166-.19.553-.222 1.01-.046.644-.102 1.426-.56 1.915-.76.812-2.348 1.004-3.13.836C3.698 10.356 3 9.27 3 8.016 3 5.926 5.74 3 12 3M8.166 9.695A3 3 0 0 1 10.086 9h3.828a3 3 0 0 1 1.92.695l3.727 3.106A4 4 0 0 1 21 15.874V18a2 2 0 0 1-2 2H5a2 2 0 0 1-2-2v-2.126A4 4 0 0 1 4.44 12.8zM14.5 14.5a2.5 2.5 0 1 1-5 0 2.5 2.5 0 0 1 5 0" clip-rule="evenodd"/></svg>
